X: 1
T: Hare's Paw, The
D: They'll Be Good Yet, Kitty Hayes and Peter Laban
M: 4/4
L: 1/8
K: F
~F3A G2 FG|AD D/D/D FDCD|~F3G AGAc|dfec dcAG|
~F3A G2 FG|AD D/D/D FDCD|~F3G AGAc|dfec d3 e||
f2 ef dcAB|c2 dc Acde|f2 ef dcAc|dfec d3 e|
f2 ef dcAB|c2 dc A~c3|~d3e dcAc|dfec dcAG||
